X: 5461
T: Bunch Of Keys, The
R: reel
M: 4/4
K: Gmajor
GF|:DGGF G2GA|BGdG eGdG|D=FFE F2FG|A=FcF dFcF|
DGGF G2GA|BAGA Bcde|=fgfd cBAc|1 BGAF DGGE:|2 BGAF GABc||
|:dggf gfga|bgag bgaf|d^cde fefg|afgf afge|
dgfa gfga|bgag fdde|=fgfd cBAc|BGAF G3A:|
|:BGG2 BGdG|BGG2 Bdgd|A=FF2 AFcF|A=FF2 ABcA|
BGG2 BGdG|BGGA Bcde|(3fga ge fdcA|GBAF DGG:|

